images/logo.svg

<svg width="131" height="51" viewBox="0 0 131 51" fill="none" xmlns="http://www.w3.org/2000/svg">
<path d="M20 50C20 50.5522 19.5522 51 19 51H11C10.4478 51 10 50.5522 10 50V11C10 10.4478 9.55225 10 9 10H1C0.447754 10 0 9.55225 0 9V1C0 0.447754 0.447754 0 1 0H19C19.5522 0 20 0.447754 20 1V50Z" fill="#EE4266"/>
<path d="M56 41C56.5522 41 57 41.4478 57 42V50C57 50.5522 56.5522 51 56 51H28C27.4478 51 27 50.5522 27 50V16C27 15.4478 27.4478 15 28 15H46C46.5522 15 47 14.5522 47 14V11C47 10.4478 46.5522 10 46 10H28C27.4478 10 27 9.55225 27 9V1C27 0.447754 27.4478 0 28 0H56C56.5522 0 57 0.447754 57 1V24C57 24.5522 56.5522 25 56 25H38C37.4478 25 37 25.4478 37 26V40C37 40.5522 37.4478 41 38 41H56Z" fill="#EE4266"/>
<path d="M63.5 1C63.5 0.447754 63.9478 0 64.5 0H92.5C93.0522 0 93.5 0.447754 93.5 1V50C93.5 50.5522 93.0522 51 92.5 51H64.5C63.9478 51 63.5 50.5522 63.5 50V42C63.5 41.4478 63.9478 41 64.5 41H82.5C83.0522 41 83.5 40.5522 83.5 40V26C83.5 25.4478 83.0522 25 82.5 25H64.5C63.9478 25 63.5 24.5522 63.5 24V16C63.5 15.4478 63.9478 15 64.5 15H82.5C83.0522 15 83.5 14.5522 83.5 14V11C83.5 10.4478 83.0522 10 82.5 10H64.5C63.9478 10 63.5 9.55225 63.5 9V1Z" fill="#EE4266"/>
<path d="M122 0C121.448 0 121 0.447754 121 1V14C121 14.5522 120.552 15 120 15H112C111.448 15 111 14.5522 111 14V1C111 0.447754 110.552 0 110 0H102C101.448 0 101 0.447754 101 1V24C101 24.5522 101.448 25 102 25H120C120.552 25 121 25.4478 121 26V50C121 50.5522 121.448 51 122 51H130C130.552 51 131 50.5522 131 50V1C131 0.447754 130.552 0 130 0H122Z" fill="#EE4266"/>
<path d="M62.8647 32.5369C62.7764 32.397 62.6494 32.2826 62.4976 32.2059L58.4517 30.1156C57.8003 29.7793 57 30.217 57 30.9099V35.0903C57 35.7831 57.8003 36.2209 58.4517 35.8842L62.4976 33.7941C62.6494 33.7174 62.7764 33.603 62.8647 33.4631C62.9194 33.3766 62.958 33.2822 62.98 33.1842C62.9932 33.1239 63 33.0621 63 33C63 32.8368 62.9531 32.6766 62.8647 32.5369Z" fill="#EE4266"/>
</svg>

<svg width="131" height="51" fill="none" xmlns="http://www.w3.org/2000/svg"><path d="M20 50c0 .6-.4 1-1 1h-8a1 1 0 0 1-1-1V11c0-.6-.4-1-1-1H1a1 1 0 0 1-1-1V1c0-.6.4-1 1-1h18c.6 0 1 .4 1 1v49ZM56 41c.6 0 1 .4 1 1v8c0 .6-.4 1-1 1H28a1 1 0 0 1-1-1V16c0-.6.4-1 1-1h18c.6 0 1-.4 1-1v-3c0-.6-.4-1-1-1H28a1 1 0 0 1-1-1V1c0-.6.4-1 1-1h28c.6 0 1 .4 1 1v23c0 .6-.4 1-1 1H38a1 1 0 0 0-1 1v14c0 .6.4 1 1 1h18ZM63.5 1c0-.6.4-1 1-1h28c.6 0 1 .4 1 1v49c0 .6-.4 1-1 1h-28a1 1 0 0 1-1-1v-8c0-.6.4-1 1-1h18c.6 0 1-.4 1-1V26c0-.6-.4-1-1-1h-18a1 1 0 0 1-1-1v-8c0-.6.4-1 1-1h18c.6 0 1-.4 1-1v-3c0-.6-.4-1-1-1h-18a1 1 0 0 1-1-1V1ZM122 0a1 1 0 0 0-1 1v13c0 .6-.4 1-1 1h-8a1 1 0 0 1-1-1V1c0-.6-.4-1-1-1h-8a1 1 0 0 0-1 1v23c0 .6.4 1 1 1h18c.6 0 1 .4 1 1v24c0 .6.4 1 1 1h8c.6 0 1-.4 1-1V1c0-.6-.4-1-1-1h-8ZM62.9 32.5a1 1 0 0 0-.4-.3l-4-2c-.7-.4-1.5 0-1.5.7v4.2c0 .7.8 1.1 1.5.8l4-2.1a1 1 0 0 0 .5-.6.9.9 0 0 0-.1-.7Z" fill="#EE4266"/></svg>
